X:37
M:3/2
L:1/4
Q:1/2=100
K:D
"6/4 in book"CE2Ac2 | CE2AFE/D/ | CE2Ac2 | B/A/B/c/dAFE/D/ ||
Eef/e/d/c/ d/c/B/A/ | eE2eFE/D/ | Eef/e/d/c/ d/c/B/A/ | dD2AFE/D/ ||

